X:119
T:Miss Nancy frowns
M:6/8
L:1/8
B:Thompson's Compleat Collection of 200 Favourite Country Dances, vol. 1 (London, 1757)
Z:Transcribed and edited by Flynn Titford-Mock, 2007
Z:abc's:AK/Fiddler's Companion
K:G
G|GAG G2e|dBG AFD|GAG G2e|dBG A2::A|GAB d2g|dBG AFD|
GAB d2g|dBG A2g|bag agf|egc BAG|ABG FED|EAF G2:|

